svg/link.svg

<svg xmlns="http://www.w3.org/2000/svg" viewBox="0 0 65 65" enable-background="new 0 0 65 65"><style type="text/css">.st0{fill:#343434;}</style><title>link</title><desc>Created with Sketch.</desc><path class="st0" d="M60.8 4.2c-5.1-5.1-13.3-5.1-18.4 0l-13.5 13.4 4.2 4.2 13.5-13.4c2.7-2.7 7.2-2.7 9.9 0s2.7 7.2 0 9.9l-15.5 15.6c-2.7 2.7-7.2 2.7-9.9 0-.5-.5-.9-1-1.2-1.6l-4.3 4.3c.4.5.8 1 1.3 1.5 5.1 5.1 13.3 5.1 18.4 0l15.5-15.5c5-5.1 5-13.3 0-18.4zM33.1 44.6l-.1-.4-1.2-1.2-13.5 13.5c-2.7 2.7-7.2 2.7-9.9 0s-2.7-7.2 0-9.9l15.6-15.5c2.7-2.7 7.2-2.7 9.9 0 .8.8 1.3 1.6 1.6 2.6l4.5-4.5c-.5-.8-1.1-1.6-1.9-2.4-5.1-5.1-13.3-5.1-18.4 0l-15.5 15.6c-5.1 5.1-5.1 13.3 0 18.4s13.3 5.1 18.4 0l13.4-13.5-2.8-2.8-.1.1z"/></svg>

<?xml version="1.0" encoding="utf-8"?>
<!-- Generator: Adobe Illustrator 21.0.0, SVG Export Plug-In . SVG Version: 6.00 Build 0)  -->
<svg version="1.1" id="Layer_1" xmlns="http://www.w3.org/2000/svg" xmlns:xlink="http://www.w3.org/1999/xlink" x="0px" y="0px"
	 viewBox="0 0 65 65" style="enable-background:new 0 0 65 65;" xml:space="preserve">
<style type="text/css">
	.st0{fill:#343434;}
</style>
<title>link</title>
<desc>Created with Sketch.</desc>
<g>
	<path class="st0" d="M60.8,4.2c-5.1-5.1-13.3-5.1-18.4,0L28.9,17.6l4.2,4.2L46.6,8.4c2.7-2.7,7.2-2.7,9.9,0c2.7,2.7,2.7,7.2,0,9.9
		L41,33.9c-2.7,2.7-7.2,2.7-9.9,0c-0.5-0.5-0.9-1-1.2-1.6l-4.3,4.3c0.4,0.5,0.8,1,1.3,1.5c5.1,5.1,13.3,5.1,18.4,0l15.5-15.5
		C65.8,17.5,65.8,9.3,60.8,4.2z"/>
	<path class="st0" d="M33.1,44.6L33,44.2L31.8,43L18.3,56.5c-2.7,2.7-7.2,2.7-9.9,0c-2.7-2.7-2.7-7.2,0-9.9L24,31.1
		c2.7-2.7,7.2-2.7,9.9,0c0.8,0.8,1.3,1.6,1.6,2.6l4.5-4.5c-0.5-0.8-1.1-1.6-1.9-2.4c-5.1-5.1-13.3-5.1-18.4,0L4.2,42.4
		c-5.1,5.1-5.1,13.3,0,18.4s13.3,5.1,18.4,0L36,47.3l-2.8-2.8L33.1,44.6z"/>
</g>
</svg>
